!!!OTL: ICH STEH AUF EINEM HOHEN BERG
!!!ARE: Europa, Mitteleuropa, Deutschland; France, Elsass
!!!SCT: E0089
!!!YEM: Copyright 1995, estate of Helmut Schaffrath.
**kern
*ICvox
*Ivox
*M6/8
*k[b-]
*d:
{8a
=1
4d
8e
4fn
8g
=2
4a
8a
4g}
{8a
=3
4b-
8a
8g
8fn
8g
=4
2a
8r}
{8a
=5
8a
8b-
8ccn
8ccn
8b-
8a
=6
4a
8g
4g}
{8g
=7
8fn
8g
8a
8a
8g
8fn
=8
4fn
8e
4e}
{8a
=9
8a
8g
8fn
8e
8d
8c#
=10
2d
8r}
==
!!!AGN: erzaehlendes Volks - Lied, Sage, Liebe, Leid, Ballade ?
!!!ONB: ESAC (Essen Associative Code) Database: ERK1
!!!AMT: compound duple
!!!AIN: vox
!!!EED: Helmut Schaffrath
!!!EEV: 1.0
*-
